!!!OTL: Under the Areca Palm
!!!OTL@@CHN: 槟榔树下摇网床
!!!ARE: China
**kern
*clefG2
*M4/4
*k[b-]
*MM60
{8b-
8dd
8dd
16b-
16dd
2dd
=1
8b-
8dd
8dd
16b-
16cc
2cc}
=2
{8f
8a
8a
16f
16g
2g
=3
8f
8g
16g
16f
8c
2f}
=4
{16.a
32cc
16cc
16cc
16a
16g
16f
16g
8f
4c
8f}
=5
{16.a
32cc
16cc
16cc
16a
16g
16f
16c
2g}
=6
{16.a
32cc
16cc
16cc
16a
16g
16f
16g
16f
8d
16c
8d}
8r
=7
{16.f
32a
16a
16a
16g
16f
16c
16f
2f}
=8
{8b-
8dd
8dd
16b-
16dd
2dd
=9
8b-
8dd
8dd
16b-
16cc
2cc}
=10
{8f
8a
8a
16f
16g
2g
=11
8f
8g
16g
16f
8c
2f}
=12
{16.b-
32dd
16dd
16dd
16dd
16cc
16b-
16cc
8b-
4f
8b-}
=13
{16.dd
32ff
16ff
16ff
16dd
16cc
16b-
16f
2cc}
=14
{16.dd
32ff
16ff
16ff
16dd
16cc
16b-
16cc
16b-
8g
16f
8g}
8r
=15	.
{16.f
32a
16a
16a
16g
16f
16c
16f
2f}
==
*-
